public/assets/electric4.svg

<svg width="118" height="98" viewBox="0 0 118 98" fill="none" xmlns="http://www.w3.org/2000/svg">
<path d="M107.24 97.5992H2.01218C0.894132 97.5992 -0.000305176 96.6916 -0.000305176 95.5867V27.0833C-0.000305176 25.9652 0.907286 25.0708 2.01218 25.0708H107.24C108.358 25.0708 109.253 25.9784 109.253 27.0833V95.5867C109.266 96.7047 108.358 97.5992 107.24 97.5992Z" fill="url(#paint0_linear_57_164)"/>
<path d="M12.6135 92.6409H9.25931C8.62795 92.6409 8.12811 92.1279 8.12811 91.5097V31.1615C8.12811 30.5301 8.6411 30.0303 9.25931 30.0303H12.6003C13.2317 30.0303 13.7315 30.5433 13.7315 31.1615V91.4966C13.7447 92.1279 13.2317 92.6409 12.6135 92.6409Z" fill="#FEF7EC" stroke="#FEF7EC" stroke-miterlimit="10" stroke-linecap="round" stroke-linejoin="round"/>
<path d="M25.0965 92.6409H21.7555C21.1241 92.6409 20.6243 92.1279 20.6243 91.5097V31.1615C20.6243 30.5301 21.1373 30.0303 21.7555 30.0303H25.0965C25.7278 30.0303 26.2277 30.5433 26.2277 31.1615V91.4966C26.2277 92.1279 25.7147 92.6409 25.0965 92.6409Z" fill="#FEF7EC" stroke="#FEF7EC" stroke-miterlimit="10" stroke-linecap="round" stroke-linejoin="round"/>
<path d="M37.5785 92.6409H34.2375C33.6061 92.6409 33.1063 92.1279 33.1063 91.5097V31.1615C33.1063 30.5301 33.6192 30.0303 34.2375 30.0303H37.5785C38.2098 30.0303 38.7096 30.5433 38.7096 31.1615V91.4966C38.7096 92.1279 38.2098 92.6409 37.5785 92.6409Z" fill="#FEF7EC" stroke="#FEF7EC" stroke-miterlimit="10" stroke-linecap="round" stroke-linejoin="round"/>
<path d="M50.0618 92.6409H46.7208C46.0894 92.6409 45.5896 92.1279 45.5896 91.5097V31.1615C45.5896 30.5301 46.1026 30.0303 46.7208 30.0303H50.0618C50.6932 30.0303 51.193 30.5433 51.193 31.1615V91.4966C51.193 92.1279 50.6932 92.6409 50.0618 92.6409Z" fill="#FEF7EC" stroke="#FEF7EC" stroke-miterlimit="10" stroke-linecap="round" stroke-linejoin="round"/>
<path d="M62.5437 92.6409H59.2027C58.5714 92.6409 58.0715 92.1279 58.0715 91.5097V31.1615C58.0715 30.5301 58.5845 30.0303 59.2027 30.0303H62.5437C63.1751 30.0303 63.6749 30.5433 63.6749 31.1615V91.4966C63.6749 92.1279 63.1751 92.6409 62.5437 92.6409Z" fill="#FEF7EC" stroke="#FEF7EC" stroke-miterlimit="10" stroke-linecap="round" stroke-linejoin="round"/>
<path d="M75.0271 92.6409H71.6861C71.0548 92.6409 70.5549 92.1279 70.5549 91.5097V31.1615C70.5549 30.5301 71.0679 30.0303 71.6861 30.0303H75.0271C75.6585 30.0303 76.1583 30.5433 76.1583 31.1615V91.4966C76.1715 92.1279 75.6585 92.6409 75.0271 92.6409Z" fill="#FEF7EC" stroke="#FEF7EC" stroke-miterlimit="10" stroke-linecap="round" stroke-linejoin="round"/>
<path d="M87.509 92.6409H84.1681C83.5367 92.6409 83.0369 92.1279 83.0369 91.5097V31.1615C83.0369 30.5301 83.5499 30.0303 84.1681 30.0303H87.509C88.1404 30.0303 88.6403 30.5433 88.6403 31.1615V91.4966C88.6534 92.1279 88.1404 92.6409 87.509 92.6409Z" fill="#FEF7EC" stroke="#FEF7EC" stroke-miterlimit="10" stroke-linecap="round" stroke-linejoin="round"/>
<path d="M99.9925 92.6409H96.6515C96.0201 92.6409 95.5203 92.1279 95.5203 91.5097V31.1615C95.5203 30.5301 96.0332 30.0303 96.6515 30.0303H99.9925C100.624 30.0303 101.124 30.5433 101.124 31.1615V91.4966C101.137 92.1279 100.624 92.6409 99.9925 92.6409Z" fill="#FEF7EC" stroke="#FEF7EC" stroke-miterlimit="10" stroke-linecap="round" stroke-linejoin="round"/>
<path d="M110.988 30.9375H109.265V27.7544H110.988" fill="url(#paint1_linear_57_164)"/>
<path d="M114.316 33.029C116.35 33.029 117.999 31.3801 117.999 29.3461C117.999 27.312 116.35 25.6631 114.316 25.6631C112.282 25.6631 110.633 27.312 110.633 29.3461C110.633 31.3801 112.282 33.029 114.316 33.029Z" fill="url(#paint2_linear_57_164)"/>
<path d="M114.315 32.0161C115.79 32.0161 116.985 30.8206 116.985 29.3459C116.985 27.8713 115.79 26.6758 114.315 26.6758C112.84 26.6758 111.645 27.8713 111.645 29.3459C111.645 30.8206 112.84 32.0161 114.315 32.0161Z" stroke="#FEF7EC" stroke-width="0.5" stroke-miterlimit="10" stroke-linecap="round" stroke-linejoin="round"/>
<path d="M32.5819 19.0861C35.765 10.9835 23.7427 8.82633 32.4372 1" stroke="#F5AE3D" stroke-width="2" stroke-miterlimit="10" stroke-linecap="round" stroke-linejoin="round"/>
<path d="M54.3383 19.0861C57.5215 10.9835 45.4992 8.82633 54.1937 1" stroke="#F5AE3D" stroke-width="2" stroke-miterlimit="10" stroke-linecap="round" stroke-linejoin="round"/>
<path d="M76.1064 19.0861C79.2896 10.9835 67.2673 8.82633 75.9617 1" stroke="#F5AE3D" stroke-width="2" stroke-miterlimit="10" stroke-linecap="round" stroke-linejoin="round"/>
<defs>
<linearGradient id="paint0_linear_57_164" x1="30.9312" y1="17.7782" x2="87.481" y2="121.703" gradientUnits="userSpaceOnUse">
<stop offset="0.00249518" stop-color="#28C985"/>
<stop offset="1" stop-color="#18808A"/>
</linearGradient>
<linearGradient id="paint1_linear_57_164" x1="109.398" y1="29.3511" x2="110.909" y2="29.3511" gradientUnits="userSpaceOnUse">
<stop offset="0.00249518" stop-color="#28C985"/>
<stop offset="1" stop-color="#18808A"/>
</linearGradient>
<linearGradient id="paint2_linear_57_164" x1="114.328" y1="24.4421" x2="114.29" y2="36.6804" gradientUnits="userSpaceOnUse">
<stop offset="0.00249518" stop-color="#28C985"/>
<stop offset="1" stop-color="#18808A"/>
</linearGradient>
</defs>
</svg>

<svg width="118" height="98" fill="none" xmlns="http://www.w3.org/2000/svg"><path d="M107.24 97.6H2.012A2.012 2.012 0 0 1 0 95.586V27.083c0-1.118.907-2.012 2.012-2.012H107.24c1.118 0 2.013.907 2.013 2.012v68.504a1.996 1.996 0 0 1-2.013 2.012z" fill="url(#a)"/><path d="M12.614 92.64H9.258a1.131 1.131 0 0 1-1.13-1.13V31.16c0-.63.512-1.13 1.13-1.13H12.6c.632 0 1.132.512 1.132 1.13v60.336c.013.63-.5 1.144-1.118 1.144zM25.096 92.64h-3.34a1.131 1.131 0 0 1-1.132-1.13V31.16c0-.63.513-1.13 1.132-1.13h3.34c.632 0 1.132.512 1.132 1.13v60.336c0 .63-.513 1.144-1.132 1.144zM37.578 92.64h-3.34a1.131 1.131 0 0 1-1.132-1.13V31.16c0-.63.513-1.13 1.131-1.13h3.341c.632 0 1.132.512 1.132 1.13v60.336c0 .63-.5 1.144-1.132 1.144zM50.062 92.64H46.72a1.131 1.131 0 0 1-1.131-1.13V31.16c0-.63.513-1.13 1.13-1.13h3.342c.631 0 1.131.512 1.131 1.13v60.336c0 .63-.5 1.144-1.131 1.144zM62.544 92.64h-3.341a1.131 1.131 0 0 1-1.132-1.13V31.16c0-.63.514-1.13 1.132-1.13h3.34c.632 0 1.132.512 1.132 1.13v60.336c0 .63-.5 1.144-1.131 1.144zM75.027 92.64h-3.34a1.131 1.131 0 0 1-1.132-1.13V31.16c0-.63.513-1.13 1.131-1.13h3.341c.632 0 1.131.512 1.131 1.13v60.336c.013.63-.5 1.144-1.13 1.144zM87.509 92.64h-3.34a1.131 1.131 0 0 1-1.132-1.13V31.16c0-.63.513-1.13 1.131-1.13h3.341c.631 0 1.131.512 1.131 1.13v60.336c.013.63-.5 1.144-1.131 1.144zM99.993 92.64h-3.341a1.131 1.131 0 0 1-1.132-1.13V31.16c0-.63.513-1.13 1.132-1.13h3.34c.632 0 1.132.512 1.132 1.13v60.336c.013.63-.5 1.144-1.131 1.144z" fill="#FEF7EC" stroke="#FEF7EC" stroke-miterlimit="10" stroke-linecap="round" stroke-linejoin="round"/><path d="M110.988 30.938h-1.723v-3.184h1.723" fill="url(#b)"/><path d="M114.316 33.029a3.683 3.683 0 1 0 0-7.366 3.683 3.683 0 0 0 0 7.366z" fill="url(#c)"/><path d="M114.315 32.016a2.67 2.67 0 1 0 0-5.34 2.67 2.67 0 0 0 0 5.34z" stroke="#FEF7EC" stroke-width=".5" stroke-miterlimit="10" stroke-linecap="round" stroke-linejoin="round"/><path d="M32.582 19.086c3.183-8.102-8.84-10.26-.145-18.086M54.338 19.086C57.522 10.984 45.5 8.826 54.194 1M76.106 19.086C79.29 10.984 67.267 8.826 75.962 1" stroke="#F5AE3D" stroke-width="2" stroke-miterlimit="10" stroke-linecap="round" stroke-linejoin="round"/><defs><linearGradient id="a" x1="30.931" y1="17.778" x2="87.481" y2="121.703" gradientUnits="userSpaceOnUse"><stop offset=".002" stop-color="#28C985"/><stop offset="1" stop-color="#18808A"/></linearGradient><linearGradient id="b" x1="109.398" y1="29.351" x2="110.909" y2="29.351" gradientUnits="userSpaceOnUse"><stop offset=".002" stop-color="#28C985"/><stop offset="1" stop-color="#18808A"/></linearGradient><linearGradient id="c" x1="114.328" y1="24.442" x2="114.29" y2="36.68" gradientUnits="userSpaceOnUse"><stop offset=".002" stop-color="#28C985"/><stop offset="1" stop-color="#18808A"/></linearGradient></defs></svg>
